X:4298
L:1/8
Q:1/4=120
M:4/4
K:D
"^Slow" D4 EDGF | F4 GFBA | A3 A B2 c2 | d2 D>D D2 d>e | f2 f>f f2 ag/f/ | e2 e>e e2 d2 | 
 cd/e/ fe/d/ c2 B2 | A2 A>A A2 :: A/B/c/d/ | e2 e>e e2 fe/d/ | e2 e>e e2 f>g | a>a f>g a>a g>f | 
 e2 e>e e2 z2 | D4 EDGF | F4 GFBA | A3 g fedc | d2 d>d d2 z2 :|

